static/icon_code.svg

<svg fill="none" height="24" viewBox="0 0 24 24" width="24" xmlns="http://www.w3.org/2000/svg"><path clip-rule="evenodd" d="m4.8 12 4.6 4.6-1.4 1.4-6-6 6-6 1.4 1.4zm14.4 0-4.6 4.6 1.4 1.4 6-6-6-6-1.4 1.4z" fill="#fff" fill-rule="evenodd"/></svg>

<svg width="24" height="24" viewBox="0 0 24 24" fill="none" xmlns="http://www.w3.org/2000/svg">
<g id="code_24px">
<path id="icon/action/code_24px" fill-rule="evenodd" clip-rule="evenodd" d="M4.8 12L9.4 16.6L8 18L2 12L8 6L9.4 7.4L4.8 12ZM19.2 12L14.6 16.6L16 18L22 12L16 6L14.6 7.4L19.2 12Z" fill="white"/>
</g>
</svg>
